public/images/icons/lowPrice.svg

<svg fill="none" height="40" viewBox="0 0 40 40" width="40" xmlns="http://www.w3.org/2000/svg" xmlns:xlink="http://www.w3.org/1999/xlink"><linearGradient id="a"><stop offset="0" stop-color="#ffe7e0"/><stop offset=".34375" stop-color="#f8dbf4"/><stop offset=".6875" stop-color="#c4ddff"/><stop offset="1" stop-color="#cae9ff"/></linearGradient><linearGradient id="b" gradientUnits="userSpaceOnUse" x1="4.828" x2="30.4169" xlink:href="#a" y1="19.586" y2="8.55521"/><linearGradient id="c" gradientUnits="userSpaceOnUse" x1=".000001" x2="32.0085" xlink:href="#a" y1="20" y2="4.00641"/><linearGradient id="d" gradientUnits="userSpaceOnUse" x1="14.324" x2="25.1368" xlink:href="#a" y1="15.9" y2="13.4854"/><path d="m4.828 22h1.172 2v-2-16c0-1.102.898-2 2-2h20c1.102 0 2 .898 2 2v16 2h2 1.172l-15.172 15.172z" fill="url(#b)" opacity=".3"/><path d="m30 4v16 4h.344l-10.344 10.344-10.344-10.344h.344v-4-16zm0-4h-20c-2.21 0-4 1.79-4 4v16h-6l20 20 20-20h-6v-16c0-2.21-1.79-4-4-4z" fill="url(#c)"/><path d="m25.65 20.572c0 4.656-3.824 5.284-4.5 5.368v2.66h-2.004v-2.66c-.624-.086-4.822-.546-4.822-6.33h3.78c0 3.416 1.762 3.274 2.03 3.274.294 0 1.736-.054 1.736-2.286 0-4.458-6.918-2.48-6.918-9.162 0-4.57999 3.796-5.29399 4.474-5.37999v-2.856h2.016v2.912c.642.122 4.234.942 4.234 6.19599h-3.78c0-2.74599-1.166-3.17799-1.656-3.17799-.268 0-1.51.07-1.51 2.32399.002 3.934 6.92 2.708 6.92 9.118z" fill="url(#d)"/></svg>

<svg width="40" height="40" viewBox="0 0 40 40" fill="none" xmlns="http://www.w3.org/2000/svg">
<path opacity="0.3" d="M4.828 22H6H8V20V4C8 2.898 8.898 2 10 2H30C31.102 2 32 2.898 32 4V20V22H34H35.172L20 37.172L4.828 22Z" fill="url(#paint0_linear_25_490)"/>
<path d="M30 4V20V24H30.344L20 34.344L9.656 24H10V20V4H30ZM30 0H10C7.79 0 6 1.79 6 4V20H0L20 40L40 20H34V4C34 1.79 32.21 0 30 0Z" fill="url(#paint1_linear_25_490)"/>
<path d="M25.65 20.572C25.65 25.228 21.826 25.856 21.15 25.94V28.6H19.146V25.94C18.522 25.854 14.324 25.394 14.324 19.61H18.104C18.104 23.026 19.866 22.884 20.134 22.884C20.428 22.884 21.87 22.83 21.87 20.598C21.87 16.14 14.952 18.118 14.952 11.436C14.952 6.85601 18.748 6.14201 19.426 6.05601V3.20001H21.442V6.11201C22.084 6.23401 25.676 7.05401 25.676 12.308H21.896C21.896 9.56201 20.73 9.13001 20.24 9.13001C19.972 9.13001 18.73 9.20001 18.73 11.454C18.732 15.388 25.65 14.162 25.65 20.572Z" fill="url(#paint2_linear_25_490)"/>
<defs>
<linearGradient id="paint0_linear_25_490" x1="4.828" y1="19.586" x2="30.4169" y2="8.55521" gradientUnits="userSpaceOnUse">
<stop stop-color="#FFE7E0"/>
<stop offset="0.34375" stop-color="#F8DBF4"/>
<stop offset="0.6875" stop-color="#C4DDFF"/>
<stop offset="1" stop-color="#CAE9FF"/>
</linearGradient>
<linearGradient id="paint1_linear_25_490" x1="1.1913e-06" y1="20" x2="32.0085" y2="4.00641" gradientUnits="userSpaceOnUse">
<stop stop-color="#FFE7E0"/>
<stop offset="0.34375" stop-color="#F8DBF4"/>
<stop offset="0.6875" stop-color="#C4DDFF"/>
<stop offset="1" stop-color="#CAE9FF"/>
</linearGradient>
<linearGradient id="paint2_linear_25_490" x1="14.324" y1="15.9" x2="25.1368" y2="13.4854" gradientUnits="userSpaceOnUse">
<stop stop-color="#FFE7E0"/>
<stop offset="0.34375" stop-color="#F8DBF4"/>
<stop offset="0.6875" stop-color="#C4DDFF"/>
<stop offset="1" stop-color="#CAE9FF"/>
</linearGradient>
</defs>
</svg>
